Numix-GalliumOS/16/actions/stock_mail-unread-multiple.svg

<?xml version="1.0" encoding="UTF-8" standalone="no"?>
<svg
   xmlns:dc="http://purl.org/dc/elements/1.1/"
   xmlns:cc="http://creativecommons.org/ns#"
   xmlns:rdf="http://www.w3.org/1999/02/22-rdf-syntax-ns#"
   xmlns:svg="http://www.w3.org/2000/svg"
   xmlns="http://www.w3.org/2000/svg"
   xmlns:sodipodi="http://sodipodi.sourceforge.net/DTD/sodipodi-0.dtd"
   xmlns:inkscape="http://www.inkscape.org/namespaces/inkscape"
   width="16"
   viewBox="0 0 4.5155557 4.5155557"
   height="16"
   id="svg2"
   version="1.1"
   inkscape:version="0.91 r"
   sodipodi:docname="stock_mail-unread-multiple.svg">
  <metadata
     id="metadata32">
    <rdf:RDF>
      <cc:Work
         rdf:about="">
        <dc:format>image/svg+xml</dc:format>
        <dc:type
           rdf:resource="http://purl.org/dc/dcmitype/StillImage" />
        <dc:title></dc:title>
      </cc:Work>
    </rdf:RDF>
  </metadata>
  <defs
     id="defs30" />
  <sodipodi:namedview
     pagecolor="#ffffff"
     bordercolor="#666666"
     borderopacity="1"
     objecttolerance="10"
     gridtolerance="10"
     guidetolerance="10"
     inkscape:pageopacity="0"
     inkscape:pageshadow="2"
     inkscape:window-width="1920"
     inkscape:window-height="1056"
     id="namedview28"
     showgrid="false"
     inkscape:zoom="29.5"
     inkscape:cx="-3.1369335"
     inkscape:cy="12.438724"
     inkscape:window-x="0"
     inkscape:window-y="24"
     inkscape:window-maximized="1"
     inkscape:current-layer="svg2" />
  <g
     transform="matrix(0.75000007,0,0,0.75000007,-1.3457406e-7,-0.42333432)"
     id="g4-5">
    <path
       style="fill:#268bd2"
       d="M 0.28222223,0.56447648 C 0,0.56447648 0,0.56444338 0,0.84666568 L 0,3.668888 c 0,0.2822222 -4.9194439e-8,0.2822222 0.28222223,0.2822222 l 3.95111117,0 c 0.2822223,0 0.2822223,0 0.2822223,-0.2822222 0,-0.9083989 0,-2.2974207 0,-2.82222232 0,-0.2822223 0,-0.2821895 -0.2822223,-0.2821895 z"
       id="path6-0"
       inkscape:connector-curvature="0" />
    <g
       style="fill-opacity:0.1"
       id="g8-5">
      <path
         style="fill:#ffffff"
         d="M 0.12347223,0.56640108 C 0.00440972,0.57961508 0,0.63687508 0,0.84829708 L 2.2577778,2.2577768 4.5155557,0.84829708 c 0,-0.281896 0,-0.281896 -0.2822223,-0.281896 l -3.95111117,0 c -0.0705556,0 -0.1190625,-0.0044 -0.15875,0 z"
         id="path10-9"
         inkscape:connector-curvature="0" />
      <path
         d="m 4.5155557,0.84666558 -2.2577779,1.41111122 2.2577779,1.4111111 0,-2.82222232 z"
         id="path12-0"
         inkscape:connector-curvature="0" />
    </g>
  </g>
  <g
     style="fill:#dc322f;fill-opacity:0"
     transform="matrix(0.14967002,-0.14967002,0.14967002,0.14967002,-0.71215518,0.10993827)"
     id="g14-7">
    <path
       d="M 0.62499842,14.032613 2.039212,15.446827 5.574746,11.911293 4.1605324,10.497079 Z"
       id="path16-4"
       inkscape:connector-curvature="0" />
    <path
       d="m 1.3321052,9.0828657 5.6568544,0 0,5.6568543 z"
       id="path18-2"
       inkscape:connector-curvature="0" />
  </g>
  <g
     transform="matrix(0.75000008,0,0,0.75000008,1.1288889,1.5522172)"
     id="g4">
    <path
       style="fill:#268bd2"
       d="M 0.28222223,0.56447648 C 0,0.56447648 0,0.56444338 0,0.84666568 L 0,3.668888 c 0,0.2822222 -4.9194439e-8,0.2822222 0.28222223,0.2822222 l 3.95111117,0 c 0.2822223,0 0.2822223,0 0.2822223,-0.2822222 0,-0.9083989 0,-2.2974207 0,-2.82222232 0,-0.2822223 0,-0.2821895 -0.2822223,-0.2821895 z"
       id="path6"
       inkscape:connector-curvature="0" />
    <g
       style="fill-opacity:0.1"
       id="g8">
      <path
         style="fill:#ffffff"
         d="M 0.12347223,0.56640108 C 0.00440972,0.57961508 0,0.63687508 0,0.84829708 L 2.2577778,2.2577768 4.5155557,0.84829708 c 0,-0.281896 0,-0.281896 -0.2822223,-0.281896 l -3.95111117,0 c -0.0705556,0 -0.1190625,-0.0044 -0.15875,0 z"
         id="path10"
         inkscape:connector-curvature="0" />
      <path
         d="m 4.5155557,0.84666558 -2.2577779,1.41111122 2.2577779,1.4111111 0,-2.82222232 z"
         id="path12"
         inkscape:connector-curvature="0" />
    </g>
  </g>
  <g
     style="fill:#dc322f;fill-opacity:0"
     transform="matrix(0.14967002,-0.14967002,0.14967002,0.14967002,0.41673384,2.0854898)"
     id="g14">
    <path
       d="M 0.62499842,14.032613 2.039212,15.446827 5.574746,11.911293 4.1605324,10.497079 Z"
       id="path16"
       inkscape:connector-curvature="0" />
    <path
       d="m 1.3321052,9.0828657 5.6568544,0 0,5.6568543 z"
       id="path18"
       inkscape:connector-curvature="0" />
  </g>
  <path
     inkscape:connector-curvature="0"
     style="fill:#cb4b16;fill-rule:evenodd"
     d="M 4.0152905,1.2754828 C 4.2260887,2.1873583 4.1690207,2.07446 3.3838541,1.689732 2.5590799,2.1082937 2.5877566,2.1439388 2.7576939,1.266874 2.0162216,0.6490798 2.1010767,0.7049777 3.0021418,0.5912842 c 0.4055219,-0.8178754 0.3712779,-0.7600265 0.7772376,0.00532 0.9499597,0.1056446 0.92757,0.069357 0.2359111,0.6788782 z"
     id="path4165" />
</svg>

<svg xmlns="http://www.w3.org/2000/svg" width="16" viewBox="0 0 4.5155557 4.5155557" height="16">
 <g transform="matrix(0.75000007,0,0,0.75000007,-1.3457406e-7,-0.42333432)">
  <path d="m 0.282 0.564 c -0.282 0 -0.282 0 -0.282 0.282 l 0 2.822 c 0 0.282 0 0.282 0.282 0.282 l 3.951 0 c 0.282 0 0.282 0 0.282 -0.282 0 -0.908 0 -2.297 0 -2.822 0 -0.282 0 -0.282 -0.282 -0.282 z" style="fill:#268bd2"/>
  <g style="fill-opacity:0.1">
   <path d="m 0.123 0.566 c -0.119 0.013 -0.123 0.07 -0.123 0.282 l 2.258 1.409 2.258 -1.409 c 0 -0.282 0 -0.282 -0.282 -0.282 l -3.951 0 c -0.071 0 -0.119 -0.004 -0.159 0 z" style="fill:#fff"/>
   <path d="m 4.516 0.847 -2.258 1.411 2.258 1.411 0 -2.822 z"/>
  </g>
 </g>
 <g transform="matrix(0.14967002,-0.14967002,0.14967002,0.14967002,-0.71215518,0.10993827)" style="fill:#dc322f;fill-opacity:0">
  <path d="m 0.625 14.03 1.414 1.414 3.536 -3.536 -1.414 -1.414"/>
  <path d="m 1.332 9.08 5.657 0 0 5.657 z"/>
 </g>
 <g transform="matrix(0.75000008,0,0,0.75000008,1.1288889,1.5522172)">
  <path d="m 0.282 0.564 c -0.282 0 -0.282 0 -0.282 0.282 l 0 2.822 c 0 0.282 0 0.282 0.282 0.282 l 3.951 0 c 0.282 0 0.282 0 0.282 -0.282 0 -0.908 0 -2.297 0 -2.822 0 -0.282 0 -0.282 -0.282 -0.282 z" style="fill:#268bd2"/>
  <g style="fill-opacity:0.1">
   <path d="m 0.123 0.566 c -0.119 0.013 -0.123 0.07 -0.123 0.282 l 2.258 1.409 2.258 -1.409 c 0 -0.282 0 -0.282 -0.282 -0.282 l -3.951 0 c -0.071 0 -0.119 -0.004 -0.159 0 z" style="fill:#fff"/>
   <path d="m 4.516 0.847 -2.258 1.411 2.258 1.411 0 -2.822 z"/>
  </g>
 </g>
 <g transform="matrix(0.14967002,-0.14967002,0.14967002,0.14967002,0.41673384,2.0854898)" style="fill:#dc322f;fill-opacity:0">
  <path d="m 0.625 14.03 1.414 1.414 3.536 -3.536 -1.414 -1.414"/>
  <path d="m 1.332 9.08 5.657 0 0 5.657 z"/>
 </g>
 <path d="m 4.02 1.275 c 0.211 0.912 0.154 0.799 -0.631 0.414 -0.825 0.419 -0.796 0.454 -0.626 -0.423 -0.741 -0.618 -0.657 -0.562 0.244 -0.676 c 0.406 -0.818 0.371 -0.76 0.777 0.005 0.95 0.106 0.928 0.069 0.236 0.679 z" style="fill:#cb4b16;fill-rule:evenodd"/>
</svg>
